X:3765
T:Daniels Hornpipe,(unedited). JC.144
M:4/4
L:1/8
Q:160
S:John Clare,Poet,Helpstone (1793-1864)
R:Hornpipe
O:England
A:Northamptonshire
N:No TS in MS.
Z:P Headford
K:C
cecB AGFE|Bcee gBAB|gBgB aBAB|GBFB DBDB|cecAc4|!
|gBAB gBAB|gaba gfed|edcB cBed|edcB BAGF|!
Bede fBAB|gBaB bBAB|GBFB EBDB|cecB B2A2|]
